packages/foundations/assets/icons/functional/images/maps/location_arrow_north_24.svg

<svg width="24" height="24" viewBox="0 0 24 24" fill="none" xmlns="http://www.w3.org/2000/svg">
<g clip-path="url(#clip0_2213_4823)">
<path fill-rule="evenodd" clip-rule="evenodd" d="M12.0004 7.59965C12.5294 7.59965 12.8334 7.90665 13.0384 8.36865L17.7714 20.6667C17.9704 21.1827 17.7124 21.7607 17.1974 21.9587C16.8284 22.1007 16.4104 22.0127 16.1314 21.7327L12.0004 17.6017L7.86835 21.7337C7.47835 22.1236 6.84435 22.1236 6.45435 21.7337C6.17435 21.4536 6.08635 21.0366 6.22835 20.6677L10.9284 8.49765C11.0544 8.14865 11.4224 7.59965 12.0004 7.59965ZM12.0074 11.2577L9.80135 16.9706L12.0004 14.7717L14.2094 16.9806L12.0074 11.2577ZM12 1.97385C12.513 1.97385 13 2.28285 13 2.97385V5.22085C13 5.77285 12.552 6.22085 12 6.22085C11.487 6.22085 11.001 5.79785 11 5.22085L10.999 4.72885L11 2.97385C11 2.42185 11.448 1.97385 12 1.97385Z" fill="#1A1C1F"/>
</g>
<defs>
<clipPath id="clip0_2213_4823">
<rect width="24" height="24" fill="white"/>
</clipPath>
</defs>
</svg>

<svg xmlns="http://www.w3.org/2000/svg" width="24" height="24" fill="none"><g clip-path="url(#a)"><path fill="#1A1C1F" fill-rule="evenodd" d="M12 7.6c.53 0 .833.307 1.038.769l4.733 12.298a.999.999 0 0 1-1.64 1.066l-4.13-4.131-4.133 4.132a1 1 0 0 1-1.64-1.066l4.7-12.17c.126-.35.494-.898 1.072-.898m.007 3.658L9.801 16.97l2.2-2.2 2.208 2.21zM12 1.974c.513 0 1 .309 1 1V5.22a1 1 0 0 1-1 1 1.01 1.01 0 0 1-1-1l-.001-.492L11 2.974a1 1 0 0 1 1-1" clip-rule="evenodd"/></g><defs><clipPath id="a"><path fill="#fff" d="M0 0h24v24H0z"/></clipPath></defs></svg>
